!!! OTL: Berkowitz563
!!! Chapter: 1
!!! Section: V
!!! Page: 142
!!! Mode: 
!!! Encoder: DJB
**kern
*staff1
*I"Piano
=1-
*clefG2
*k[]
*C:
*M4/4
4r
4g/
4a/
4dd\
=2
4dd-\
4a-/
2e-/
=3
4.d/
8e/
4.f#/
8e/
=4
4f/
4b-\
2a/
=5
4a-/
8a-\L
8dd-\J
4b\
4f#/
=6
4f/
8f/L
8b-/J
2a/
=7
4.a-/
8g-/
8f/L
8e-/J
4d/
=8
4c/
4f/
2e/
==
*-
